Sources/FrostedUI/Resources/Icons.xcassets/dollarSignSlashed24.imageset/dollar-sign-slashed-24.svg

<svg width="24" height="24" viewBox="0 0 24 24" fill="none" xmlns="http://www.w3.org/2000/svg" data-fui-icon="true">
  <path
    d="M12.0172 0C12.4314 0 12.7672 0.335786 12.7672 0.75V1.96484C17.0295 2.24724 18.6755 4.92528 18.9869 6.41504C19.0715 6.82037 18.8112 7.21797 18.4059 7.30273C18.0006 7.3873 17.603 7.12694 17.5182 6.72168C17.3383 5.86153 16.243 3.73563 12.7672 3.4668V11.3789C14.1187 11.6369 15.5438 11.9502 16.6705 12.5811C17.3383 12.955 17.932 13.4546 18.3551 14.1426C18.7798 14.8333 19.0026 15.6657 19.0026 16.6543C19.0023 19.0272 16.8784 21.7358 12.7672 22.0303V23.248C12.7671 23.6621 12.4313 23.998 12.0172 23.998C11.6033 23.9978 11.2673 23.662 11.2672 23.248V22.0303C9.27739 21.8918 7.86064 21.2094 6.87268 20.3438C5.77901 19.3854 5.2632 18.253 5.03577 17.5439C4.90934 17.1497 5.12613 16.7273 5.52014 16.6006C5.91457 16.4741 6.337 16.6915 6.4635 17.0859C6.63588 17.6233 7.03239 18.488 7.86194 19.2148C8.57284 19.8378 9.64331 20.3955 11.2672 20.5283V12.6182C9.91585 12.3602 8.49051 12.0478 7.36389 11.417C6.69617 11.0431 6.10242 10.5435 5.67932 9.85547C5.25469 9.16484 5.03196 8.33309 5.03186 7.34473C5.03186 4.97198 7.1586 2.2629 11.2672 1.9668V0.75C11.2672 0.335913 11.6032 0.000205636 12.0172 0ZM12.7672 20.5273C16.1578 20.2476 17.5023 18.0785 17.5026 16.6543C17.5026 15.8975 17.3349 15.3471 17.0778 14.9287C16.8189 14.5078 16.4383 14.1703 15.9371 13.8896C15.095 13.4182 14.0007 13.1508 12.7672 12.9072V20.5273ZM11.2672 3.4707C7.87825 3.752 6.53186 5.9217 6.53186 7.34473C6.53196 8.10108 6.69962 8.65111 6.95667 9.06934C7.21546 9.49021 7.59617 9.8278 8.09729 10.1084C8.93937 10.5798 10.0339 10.8463 11.2672 11.0898V3.4707Z"
    fill="currentColor"
  />
</svg>

<svg xmlns="http://www.w3.org/2000/svg" width="24" height="24" fill="none" data-fui-icon="true" viewBox="0 0 24 24"><path fill="currentColor" d="M12.017 0a.75.75 0 0 1 .75.75v1.215c4.262.282 5.909 2.96 6.22 4.45a.75.75 0 0 1-1.469.307c-.18-.86-1.275-2.986-4.75-3.255v7.912c1.35.258 2.776.571 3.903 1.202.667.374 1.261.874 1.684 1.562.425.69.648 1.523.648 2.511 0 2.373-2.125 5.082-6.236 5.376v1.218a.75.75 0 0 1-1.5 0V22.03c-1.99-.138-3.406-.82-4.394-1.686a6.33 6.33 0 0 1-1.837-2.8.75.75 0 1 1 1.428-.458 4.83 4.83 0 0 0 1.398 2.129c.71.623 1.781 1.18 3.405 1.313v-7.91c-1.351-.258-2.776-.57-3.903-1.201-.668-.374-1.262-.873-1.685-1.562s-.647-1.522-.647-2.51c0-2.373 2.127-5.082 6.235-5.378V.75a.75.75 0 0 1 .75-.75m.75 20.527c3.39-.28 4.735-2.449 4.736-3.873 0-.756-.168-1.307-.425-1.725-.26-.421-.64-.759-1.14-1.04-.843-.47-1.937-.738-3.17-.982zm-1.5-17.056c-3.389.281-4.735 2.45-4.735 3.874 0 .756.168 1.306.425 1.724.258.421.64.759 1.14 1.04.842.47 1.937.737 3.17.98z"/></svg>
